packages/core/src/svgs/tokens/branded/HT.svg

<svg width="24" height="24" viewBox="0 0 24 24" fill="none" xmlns="http://www.w3.org/2000/svg">
<path d="M14.1054 8.15537C14.1054 5.2838 12.7301 2.81432 11.6844 2.0101C11.6796 2.00748 11.6038 1.96432 11.6107 2.07906L11.6085 2.08275C11.5217 7.62696 8.73697 9.13012 7.20592 11.1543C3.67276 15.8254 6.95855 20.9469 10.3049 21.8938C12.177 22.4233 9.87226 20.957 9.57544 17.8586C9.21645 14.1138 14.1054 11.2553 14.1054 8.15537Z" fill="#E6EEFA"/>
<path d="M15.9306 9.90852C15.9095 9.89378 15.879 9.88326 15.8579 9.91906C15.8005 10.6248 15.1026 12.1349 14.2184 13.5211C11.2185 18.2233 12.9279 20.4901 13.8895 21.7074C14.4474 22.4143 13.8895 21.7074 15.2842 20.9853C15.3937 20.9285 18.0064 19.4149 18.2895 15.9658C18.5632 12.6259 16.6216 10.5201 15.9306 9.90852Z" fill="#2EA7DF"/>
</svg>

<svg xmlns="http://www.w3.org/2000/svg" width="24" height="24" fill="none" viewBox="0 0 24 24">
    <path fill="#E6EEFA" d="M14.105 8.155c0-2.871-1.375-5.34-2.42-6.145-.005-.003-.081-.046-.074.07l-.003.003c-.086 5.544-2.871 7.047-4.402 9.071-3.533 4.671-.247 9.793 3.099 10.74 1.872.53-.433-.937-.73-4.035-.359-3.745 4.53-6.604 4.53-9.704"/>
    <path fill="#2EA7DF" d="M15.93 9.909c-.02-.015-.051-.026-.072.01-.058.706-.755 2.216-1.64 3.602-3 4.702-1.29 6.97-.328 8.186.557.707 0 0 1.394-.722.11-.056 2.722-1.57 3.005-5.02.274-3.34-1.667-5.445-2.358-6.056"/>
</svg>
